src/images/social/twitter.svg

<svg height="100" viewBox="0 0 100 100" width="100" xmlns="http://www.w3.org/2000/svg"><path d="m100 19c-3.743358 1.6588281-7.71408 2.7475744-11.78 3.23 4.2732072-2.5665991 7.470825-6.5955976 9-11.34-4.0195246 2.3895756-8.4151733 4.0802098-13 5-6.347538-6.8071702-16.4803518-8.49247662-24.6895676-4.1064099-8.2092158 4.3860667-12.4407071 13.7460161-10.3104324 22.8064099-16.4762272-.847305-31.8200449-8.6427785-42.22-21.45-5.43657047 9.3729117-2.65722823 21.3569102 6.35 27.38-3.2730765-.0820431-6.47900653-.9461013-9.35-2.52v.26c.03162752 9.7521335 6.9194477 18.1362155 16.48 20.06-1.7638367.4768017-3.582855.7188892-5.41.72-1.2960372.0006787-2.5889752-.1266054-3.86-.38 2.6809227 8.3594763 10.3826544 14.0875387 19.16 14.25-7.2686879 5.6995309-16.2432184 8.7884882-25.48 8.77-1.63414667-.0049502-3.26672271-.1017697-4.89-.29 9.3750279 6.0345637 20.290694 9.2391311 31.44 9.2300195 37.74 0 58.36-31.2600195 58.36-58.3600195l-.07-2.66c4.0363489-2.8830055 7.5160508-6.4745186 10.27-10.6z" fill="#1b1b1b"/></svg>

<?xml version="1.0" encoding="UTF-8"?>
<svg width="100px" height="100px" viewBox="0 0 100 100" version="1.1" xmlns="http://www.w3.org/2000/svg" xmlns:xlink="http://www.w3.org/1999/xlink">
    <!-- Generator: Sketch 55.1 (78136) - https://sketchapp.com -->
    <title>twitter</title>
    <desc>Created with Sketch.</desc>
    <g id="twitter" stroke="none" stroke-width="1" fill="none" fill-rule="evenodd">
        <path d="M100,19 C96.256642,20.6588281 92.28592,21.7475744 88.22,22.23 C92.4932072,19.6634009 95.690825,15.6344024 97.22,10.89 C93.2004754,13.2795756 88.8048267,14.9702098 84.22,15.89 C77.872462,9.0828298 67.7396482,7.39752338 59.5304324,11.7835901 C51.3212166,16.1696568 47.0897253,25.5296062 49.22,34.59 C32.7437728,33.742695 17.3999551,25.9472215 7,13.14 C1.56342953,22.5129117 4.34277177,34.4969102 13.35,40.52 C10.0769235,40.4379569 6.87099347,39.5738987 4,38 L4,38.26 C4.03162752,48.0121335 10.9194477,56.3962155 20.48,58.32 C18.7161633,58.7968017 16.897145,59.0388892 15.07,59.04 C13.7739628,59.0406787 12.4810248,58.9133946 11.21,58.66 C13.8909227,67.0194763 21.5926544,72.7475387 30.37,72.91 C23.1013121,78.6095309 14.1267816,81.6984882 4.89,81.68 C3.25585333,81.6750498 1.62327729,81.5782303 0,81.39 C9.3750279,87.4245637 20.290694,90.6291311 31.44,90.6200195 C69.18,90.6200195 89.8,59.36 89.8,32.26 L89.73,29.6 C93.7663489,26.7169945 97.2460508,23.1254814 100,19 Z" id="Path" fill="#1B1B1B" fill-rule="nonzero"></path>
    </g>
</svg>
